X:1
T:In te speravi
T:Peter Greisbacher (1864-1933)
T:In te speravi
T:In Thou, O Lord, have I hoped: I said, Thou art my God; my times are in Thy hands.
C:Peter Greisbacher (1864-1933)
%%score [ 1 2 3 4 ]
L:1/8
M:4/4
K:D
V:1 treble nm="Soprano" snm="S."
V:2 treble nm="Alto" snm="A."
V:3 treble-8 transpose=-12 nm="Tenor" snm="T."
V:4 bass nm="Bass" snm="B."
V:1
!pp! z4"^Maestoso"[Q:1/4=70]!<(! F4 | A6!<)! A2 | d6 A2 |!>(! A6 F2!>)! | E8 | B8 | F8 | %7
w: In|te spe-|ra- vi,|Do- mi-|ne;|di-|xi:|
!f! z2"^string."!<(! G4!<)! B2 | e6 d2 |!>(! d4!>)! c2!mf! A2 |[M:3/4]!<(! B3 A!<)! A2 | d4 c2 | %12
w: Tu est|De- us|me- us, in|ma- ni- bus|tu- is|
 B3 =A A2 |!>(! G6!>)! | F4 z2 | z6 | z6 | z2 z2!<(! A2 | B3!<)! A A2 | d4 c2 |!<(! B3 B!<)! B2 | %21
w: tem- po- ra|me-|a,|||in|ma- ni- bus|tu- is|tem- po- ra|
 B2 B2!f!!<(! c2 | d3!<)! c c2 | f4 e2 | (d4 c2 | B2) A2 A2 | G3 F F2 | E6 | %28
w: me- a, in|ma- ni- bus|tu- is|tem- *|* po- ra,|tem- po- ra|me-|
"^ritard. molto""^p sempre" F4 F2 | G3 F F2 | B4 A2 |!pp! (D6- | D2 GF ED | F3) E D2 | %34
w: a, in|ma- ni- bus|tu- is|tem-||* po- ra|
"^morendo" (E6- | E4 F2) | F6- | F4 z2 |] %38
w: me-||a.|_|
V:2
!pp! z4!<(! D4 | F4 E2!<)! G2 | (F2 G2 F2) E2 |!>(! D2 E2 F2 D2!>)! | C8 | (D4 E4- | E4) ^D4 | %7
w: In|te * spe-|ra- * * vi,|Do- * * mi-|ne;|di- *|* xi:|
!f! z2!<(! E4!<)! G2 | (B4 A2) B2 |!>(! A4!>)!!mf! A2 E2 |[M:3/4]!<(! F3 G!<)! G2 | A4 ^A2 | %12
w: Tu est|De- * us|me- us, in|ma- ni- bus|tu- is|
 (B2 E)F F2- |!>(! F2 (E2 D2)!>)! | C4 z2 | z6 | z6 | z6 | z6 | z2 z2 F2 |!<(! G3 F!<)! F2 | %21
w: tem- * po- ra|_ me- *|a,|||||in|ma- ni- bus|
 B2 A2 G2- | GF!f! F2 (A2- | A^G A3 =G | F3) F F2 | (F4 C2 | D6- | D2 ^C2 B,2) |"^p sempre" C4 F2 | %29
w: tu- is tem-|* po- ra, tem-||* po- ra|me- *|||a, in|
 G3 F F2 | B4 A2 |!pp! D6- | D6- | DC C2 (D2- | D2 C2 B,2 | C4 D2) | D6- | D4 z2 |] %38
w: ma- ni- bus|tu- is|tem-||* po- ra me-|||a.|_|
V:3
!pp! z4!<(! A4 | A2 d2 c2!<)! B2 | A2 B2 A2 G2 |!>(! F2 G2 A3 A!>)! | A8 | B8 | B8 | %7
w: In|te * * spe-|ra- * * vi,|Do- * * mi-|ne;|di-|xi:|
!f! z2!<(! B4!<)! e2 | g4 f4 |!>(! f4!>)!!mf! e2 c2 |[M:3/4]!<(! d3 c!<)! c2 | f4 e2 | (d2 c)d d2 | %13
w: Tu est|De- us|me- us, in|man- i- bus|tu- is|tem- * po- ra|
!>(! B6!>)! | ^A4 z2 | z2 z2!<(! c2 | d3!<)! c c2 | f2 e2 d2- | dc c2 (d2- | d2 B2 c2 | %20
w: me-|a,|in|ma- ni- bus|tu- is tem-|* po- ra, tem-||
!<(! d3) ^d!<)! d2 | e6 | A4!f! A2 | d3 c c2 | f6- | f4 e2 | d3 =c c2 | B6 |"^p sempre" ^A4 F2 | %29
w: * po- ra|me-|a, in|ma- ni- bus|tu-|* is|tem- po- ra|me-|a, in|
 G3 F F2 | B4 A2 | (A2 dc BA | B6 | A2) =G2 F2 | A6- | A6 | A6- | A4 z2 |] %38
w: ma- ni- bus|tu- is|tem- * * * *||* po- ra|me-||a.|_|
V:4
!pp! z4!<(! D,4 | D,6!<)! D,2 | D,4 D,4 |!>(! D,6 D,2!>)! | A,,8 | (G,,6 A,,2 | B,,4) B,,4 | %7
w: In|te spe-|ra- vi,|Do- mi-|ne;|di- *|* xi:|
!f!!<(! !>!E,4!<)! !>!E,2 (!>!E,2- | E,2 ^D,E, F,2) ^G,2 |!>(! A,4!>)!!mf! A,2 G,2 | %10
w: Tu est De-|* * * * us|me- us, in|
[M:3/4]!<(! F,3 E,!<)! E,2 | D,4 F,2 | G,3 D, D,2 |!>(! E,6!>)! | F,4!<(! F,2 | G,3!<)! F, F,2 | %16
w: ma- ni- bus|tu- is|tem- po- ra|me-|a, in|ma- ni- bus|
 B,2 F,2 (A,2- | A,2 G,2 F,2 | G,3) F, F,2 | (B,4 A,2 |!<(! G,2 B,2!<)! A,2 | G,2) F,2 E,2 | %22
w: tu- is tem-||* po- ra,|tem- *||* po- ra|
 D,4 A,,2 | z2!f! z2!<(! A,2 | B,3!<)! A, A,2 | D4 C2 | B,3 A, A,2 | G,6 |"^p sempre" F,4 F,2 | %29
w: me- a,|in|ma- ni- bus|tu- is|tem- po- ra|me-|a, in|
 G,3 F, F,2 | B,4 A,2 |!pp!!pp! (F,2 B,A, G,F, | G,4 ^G,2 | A,2) A,,2 B,,2 | (A,,6- | A,,4 D,2) | %36
w: ma- ni- bus|tu- is|tem- * * * *||* po- ra|me-||
 D,6- | D,4 z2 |] %38
w: a.|_|

